public/svgs/landing/insta.svg

<svg width="40" height="41" viewBox="0 0 40 41" fill="none" xmlns="http://www.w3.org/2000/svg">
<path d="M11.6 0.800003H28.4C34.8 0.800003 40 6 40 12.4V29.2C40 32.2765 38.7779 35.227 36.6024 37.4024C34.427 39.5779 31.4765 40.8 28.4 40.8H11.6C5.2 40.8 0 35.6 0 29.2V12.4C0 9.32349 1.22214 6.37299 3.39756 4.19756C5.57298 2.02214 8.52349 0.800003 11.6 0.800003ZM11.2 4.8C9.29044 4.8 7.45909 5.55857 6.10883 6.90883C4.75857 8.2591 4 10.0904 4 12V29.6C4 33.58 7.22 36.8 11.2 36.8H28.8C30.7096 36.8 32.5409 36.0414 33.8912 34.6912C35.2414 33.3409 36 31.5096 36 29.6V12C36 8.02 32.78 4.8 28.8 4.8H11.2ZM30.5 7.8C31.163 7.8 31.7989 8.0634 32.2678 8.53224C32.7366 9.00108 33 9.63696 33 10.3C33 10.963 32.7366 11.5989 32.2678 12.0678C31.7989 12.5366 31.163 12.8 30.5 12.8C29.837 12.8 29.2011 12.5366 28.7322 12.0678C28.2634 11.5989 28 10.963 28 10.3C28 9.63696 28.2634 9.00108 28.7322 8.53224C29.2011 8.0634 29.837 7.8 30.5 7.8ZM20 10.8C22.6522 10.8 25.1957 11.8536 27.0711 13.7289C28.9464 15.6043 30 18.1478 30 20.8C30 23.4522 28.9464 25.9957 27.0711 27.8711C25.1957 29.7464 22.6522 30.8 20 30.8C17.3478 30.8 14.8043 29.7464 12.9289 27.8711C11.0536 25.9957 10 23.4522 10 20.8C10 18.1478 11.0536 15.6043 12.9289 13.7289C14.8043 11.8536 17.3478 10.8 20 10.8ZM20 14.8C18.4087 14.8 16.8826 15.4321 15.7574 16.5574C14.6321 17.6826 14 19.2087 14 20.8C14 22.3913 14.6321 23.9174 15.7574 25.0426C16.8826 26.1679 18.4087 26.8 20 26.8C21.5913 26.8 23.1174 26.1679 24.2426 25.0426C25.3679 23.9174 26 22.3913 26 20.8C26 19.2087 25.3679 17.6826 24.2426 16.5574C23.1174 15.4321 21.5913 14.8 20 14.8Z" fill="#6E0000"/>
</svg>

<svg width="40" height="41" fill="none" xmlns="http://www.w3.org/2000/svg">
    <path
        d="M11.6.8h16.8C34.8.8 40 6 40 12.4v16.8a11.6 11.6 0 01-11.6 11.6H11.6C5.2 40.8 0 35.6 0 29.2V12.4A11.6 11.6 0 0111.6.8zm-.4 4A7.2 7.2 0 004 12v17.6c0 3.98 3.22 7.2 7.2 7.2h17.6a7.2 7.2 0 007.2-7.2V12c0-3.98-3.22-7.2-7.2-7.2H11.2zm19.3 3a2.5 2.5 0 110 5 2.5 2.5 0 010-5zm-10.5 3a10 10 0 110 20 10 10 0 010-20zm0 4a6 6 0 100 12 6 6 0 000-12z"
        fill="#9F161B" />
</svg>
